X: 205
T: The Cordal
R: jig
M: 6/8
L: 1/8
K:Dmaj
|:"Bm(D)"BAF "A"~E3|"D"FEF DFA|"Bm(D)"BAF "A"EFA|"G"B2A Bcd|
|"Bm(D)"BAF "A"~E3|"D"FEF DFA|d2f "A"edc|"G"B2A "(Bm)(D)"Bcd:|
|:"D"d3 fed|"A"cBc ecA|"D"d2d fed|f2e fga|
|"D"~d3 fed|"A"cBc ecA|"D"dcB "A"cBA|"G"B2A "(Bm)(D)"Bcd:|


